X:1021
T:Alston Clog Hornpipe
R:Hornpipe
C:Trad.
O:England, Lancashire
Z:Paul Hardy's Session Tunebook 2015 (see www.paulhardy.net). Creative Commons cc by-nc-sa licenced.
M:4/4
L:1/8
Q:1/4=120
K:Dmaj
AG|"D".F.A d4 fd|"A7".c.e g4 ef|"G"gefd "D"ecdf|"A".e.c A4 AG|
"D".F.A d4 fd|"A7".c.e G4 BG|"D"FD"A"GE "D"FD"A"EC|"D"D2 F2 D2:|
|:AG|"D"FAdA fAdA|"G"BGDB, G,2 BA|"E"^GBeB ^gBeB|"A7"cAEC A,2 AG|
"D".F.A d4 fd|"G".c.e G4 BG|"D"FDGE "A7"FDEC|"D"D2 F2 D2:|

